img/sprites/vk.svg

<svg width="60" height="60" viewBox="0 0 60 60" fill="none" xmlns="http://www.w3.org/2000/svg">
<g id="icon VK">
<g id="Vector">
<path d="M37.1937 25.692C37.2218 25.2788 36.9095 24.921 36.4963 24.8929C36.083 24.8648 35.7252 25.1771 35.6972 25.5903C35.5857 27.2298 34.8393 28.2703 34.1247 28.9113C33.4537 29.5132 32.6083 29.9686 31.6976 30.033C31.5022 30.0468 31.2999 30.0521 31.101 30.0519V25.6412C31.101 25.227 30.7652 24.8912 30.351 24.8912H29.126C28.7118 24.8912 28.376 25.227 28.376 25.6412C28.376 26.0554 28.7118 26.3912 29.126 26.3912H29.601V33.0557C27.0766 32.1397 25.8027 30.6926 25.1384 29.3438C24.379 27.8017 24.3748 26.3063 24.3748 25.6412C24.3748 25.227 24.039 24.8912 23.6248 24.8912C23.2106 24.8912 22.8748 25.227 22.8748 25.6412V25.6505C22.8748 26.3547 22.8747 28.1424 23.7927 30.0065C24.7314 31.9126 26.5892 33.8195 30.1513 34.8033C30.377 34.8656 30.6189 34.819 30.8052 34.6771C30.9916 34.5353 31.101 34.3145 31.101 34.0804V31.5519C31.3297 31.552 31.5681 31.5459 31.8034 31.5292C32.1502 31.5047 32.5477 31.4545 32.9114 31.339C33.5097 31.7764 34.1393 32.4179 34.6743 33.0498C34.9825 33.4139 35.247 33.7602 35.442 34.0376C35.5397 34.1765 35.6171 34.2941 35.6727 34.385C35.7181 34.4593 35.7386 34.4991 35.7447 34.5111C35.7471 34.5156 35.7473 34.5162 35.7461 34.5131C35.8959 34.8993 36.3303 35.091 36.7165 34.9413C37.1027 34.7916 37.2944 34.3571 37.1447 33.9709C37.064 33.7627 36.8716 33.4628 36.6691 33.1748C36.4472 32.8593 36.1551 32.4776 35.8191 32.0807C35.4091 31.5962 34.9141 31.0659 34.3852 30.6024C34.618 30.4471 34.8708 30.2571 35.1263 30.0279C36.0727 29.1789 37.0509 27.794 37.1937 25.692Z" fill="white"/>
<path fill-rule="evenodd" clip-rule="evenodd" d="M42.1053 41.1053C44 39.2107 44 36.1613 44 30.0625V28.9375C44 22.8387 44 19.7893 42.1053 17.8947C40.2107 16 37.1613 16 31.0625 16H29.9375C23.8387 16 20.7893 16 18.8947 17.8947C17 19.7893 17 22.8387 17 28.9375V30.0625C17 36.1613 17 39.2107 18.8947 41.1053C20.7893 43 23.8387 43 29.9375 43H31.0625C37.1613 43 40.2107 43 42.1053 41.1053ZM42.4252 36.9806C42.2085 38.5924 41.8054 39.4961 41.1507 40.1507C40.4961 40.8054 39.5924 41.2085 37.9806 41.4252C36.3299 41.6471 34.1501 41.65 31.0625 41.65H29.9375C26.8499 41.65 24.6701 41.6471 23.0194 41.4252C21.4076 41.2085 20.5039 40.8054 19.8492 40.1507C19.1946 39.4961 18.7915 38.5924 18.5748 36.9806C18.3529 35.3299 18.35 33.1501 18.35 30.0625V28.9375C18.35 25.8499 18.3529 23.6701 18.5748 22.0194C18.7915 20.4076 19.1946 19.5039 19.8492 18.8492C20.5039 18.1946 21.4076 17.7915 23.0194 17.5748C24.6701 17.3529 26.8499 17.35 29.9375 17.35H31.0625C34.1501 17.35 36.3299 17.3529 37.9806 17.5748C39.5924 17.7915 40.4961 18.1946 41.1507 18.8493C41.8054 19.5039 42.2085 20.4076 42.4252 22.0194C42.6471 23.6701 42.65 25.8499 42.65 28.9375V30.0625C42.65 33.1501 42.6471 35.3299 42.4252 36.9806Z" fill="white"/>
</g>
</g>
</svg>

<svg width="60" height="60" viewBox="0 0 60 60" fill="none" xmlns="http://www.w3.org/2000/svg"><g id="icon VK"><g id="Vector" fill="#fff"><path d="M37.194 25.692a.75.75 0 00-1.497-.102c-.111 1.64-.858 2.68-1.572 3.321-.671.602-1.517 1.058-2.427 1.122-.196.014-.398.02-.597.019v-4.41a.75.75 0 00-.75-.75h-1.225a.75.75 0 000 1.5h.475v6.664c-2.524-.916-3.798-2.363-4.463-3.712-.759-1.542-.763-3.038-.763-3.703a.75.75 0 00-1.5 0v.01c0 .704 0 2.491.918 4.355.938 1.907 2.796 3.813 6.358 4.797a.75.75 0 00.95-.723v-2.528c.229 0 .467-.006.702-.023a4.866 4.866 0 001.108-.19c.599.437 1.228 1.079 1.763 1.71.309.365.573.711.768.989a6.117 6.117 0 01.303.473l.001.002a.75.75 0 001.399-.542c-.081-.208-.273-.508-.476-.796a15.854 15.854 0 00-.85-1.094 14.153 14.153 0 00-1.434-1.479c.233-.155.486-.345.741-.574.947-.85 1.925-2.234 2.068-4.336z"/><path fill-rule="evenodd" clip-rule="evenodd" d="M42.105 41.105C44 39.211 44 36.161 44 30.063v-1.125c0-6.1 0-9.149-1.895-11.043C40.211 16 37.161 16 31.063 16h-1.125c-6.1 0-9.149 0-11.043 1.895C17 19.789 17 22.839 17 28.938v1.125c0 6.098 0 9.148 1.895 11.042C20.789 43 23.839 43 29.938 43h1.125c6.098 0 9.148 0 11.042-1.895zm.32-4.124c-.216 1.611-.62 2.515-1.274 3.17-.655.654-1.559 1.057-3.17 1.274-1.651.222-3.83.225-6.919.225h-1.125c-3.087 0-5.267-.003-6.918-.225-1.611-.216-2.515-.62-3.17-1.274-.654-.655-1.058-1.559-1.274-3.17-.222-1.651-.225-3.83-.225-6.919v-1.125c0-3.087.003-5.267.225-6.918.216-1.611.62-2.515 1.274-3.17.655-.654 1.559-1.058 3.17-1.274 1.651-.222 3.83-.225 6.919-.225h1.125c3.087 0 5.267.003 6.918.225 1.611.216 2.515.62 3.17 1.274.654.655 1.057 1.559 1.274 3.17.222 1.651.225 3.83.225 6.919v1.125c0 3.087-.003 5.267-.225 6.918z"/></g></g></svg>.2107 44 36.1613 44 30.0625V28.9375C44 22.8387 44 19.7893 42.1053 17.8947C40.2107 16 37.1613 16 31.0625 16H29.9375C23.8387 16 20.7893 16 18.8947 17.8947C17 19.7893 17 22.8387 17 28.9375V30.0625C17 36.1613 17 39.2107 18.8947 41.1053C20.7893 43 23.8387 43 29.9375 43H31.0625C37.1613 43 40.2107 43 42.1053 41.1053ZM42.4252 36.9806C42.2085 38.5924 41.8054 39.4961 41.1507 40.1507C40.4961 40.8054 39.5924 41.2085 37.9806 41.4252C36.3299 41.6471 34.1501 41.65 31.0625 41.65H29.9375C26.8499 41.65 24.6701 41.6471 23.0194 41.4252C21.4076 41.2085 20.5039 40.8054 19.8492 40.1507C19.1946 39.4961 18.7915 38.5924 18.5748 36.9806C18.3529 35.3299 18.35 33.1501 18.35 30.0625V28.9375C18.35 25.8499 18.3529 23.6701 18.5748 22.0194C18.7915 20.4076 19.1946 19.5039 19.8492 18.8492C20.5039 18.1946 21.4076 17.7915 23.0194 17.5748C24.6701 17.3529 26.8499 17.35 29.9375 17.35H31.0625C34.1501 17.35 36.3299 17.3529 37.9806 17.5748C39.5924 17.7915 40.4961 18.1946 41.1507 18.8493C41.8054 19.5039 42.2085 20.4076 42.4252 22.0194C42.6471 23.6701 42.65 25.8499 42.65 28.9375V30.0625C42.65 33.1501 42.6471 35.3299 42.4252 36.9806Z" fill="white"/>
</g>
</g>
</svg>
